Obsidian/status/16s/btsync-gui-1.svg

<svg height="16" width="16" xmlns="http://www.w3.org/2000/svg"><path d="m6.1882667 1.2385192c-3.7340278 1.0005297-5.95027718 4.8391863-4.9497474 8.5732141 1.0005296 3.7340277 4.8391862 5.9502777 8.573214 4.9497477 3.7340277-1.00053 5.9502777-4.8391865 4.9497477-8.5732143s-4.8391865-5.95027723-8.5732143-4.9497475zm.5176381 1.9318517c2.3365774-.6260841 4.7305492.5107428 5.7686902 2.5953887l1.062141-.2845998-1.155394 3.4154157-2.7083094-2.3801394.7885874-.2113015c-.7000029-1.0162588-1.9780166-1.5405443-3.2380771-1.2029121-.6888726.1858839-1.2889397.6112076-1.6924959 1.1996296l-1.9974009-.5344486c.6375881-1.2793238 1.7922304-2.2245948 3.1722587-2.5970326zm-3.0872462 3.9330536 2.7083088 2.3801394-.7885879.211302c.7000032 1.0162581 1.9780171 1.5405441 3.2380777 1.2029111.688872-.185883 1.2889398-.611207 1.6924968-1.1996289l1.9974.5344479c-.637588 1.279324-1.792238 2.224566-3.1722587 2.597033-2.3365776.626085-4.7305491-.510743-5.7686901-2.595388l-1.062141.284599z" fill="#d3dae3"/></svg>

<svg xmlns="http://www.w3.org/2000/svg" width="16" height="16" version="1.1">
 <defs>
  <style id="current-color-scheme" type="text/css">
   .ColorScheme-Text { color:#d3dae3; } .ColorScheme-Highlight { color:#5294e2; }
  </style>
 </defs>
 <path style="fill:currentColor" class="ColorScheme-Text" d="M 6.1882667,1.2385192 C 2.4542389,2.2390489 0.23798952,6.0777055 1.2385193,9.8117333 2.2390489,13.545761 6.0777055,15.762011 9.8117333,14.761481 13.545761,13.760951 15.762011,9.9222945 14.761481,6.1882667 13.760951,2.4542389 9.9222945,0.23798947 6.1882667,1.2385192 Z M 6.7059048,3.1703709 C 9.0424822,2.5442868 11.436454,3.6811137 12.474595,5.7657596 L 13.536736,5.4811598 12.381342,8.8965755 9.6730326,6.5164361 10.46162,6.3051346 C 9.7616171,5.2888758 8.4836034,4.7645903 7.2235429,5.1022225 6.5346703,5.2881064 5.9346032,5.7134301 5.531047,6.3018521 L 3.5336461,5.7674035 C 4.1712342,4.4880797 5.3258765,3.5428087 6.7059048,3.1703709 Z M 3.6186586,7.1034245 6.3269674,9.4835639 5.5383795,9.6948659 C 6.2383827,10.711124 7.5163966,11.23541 8.7764572,10.897777 9.4653292,10.711894 10.065397,10.28657 10.468954,9.6981481 l 1.9974,0.5344479 C 11.828766,11.51192 10.674116,12.457162 9.2940953,12.829629 6.9575177,13.455714 4.5635462,12.318886 3.5254052,10.234241 L 2.4632642,10.51884 3.6186586,7.1034245 Z"/>
</svg>
